app/assets/images/heroicons/outline/forward.svg

<svg width="24" height="24" viewBox="0 0 24 24" fill="none" xmlns="http://www.w3.org/2000/svg">
<path d="M3 8.68867C3 7.82487 3.93317 7.28334 4.68316 7.7119L11.7906 11.7733C12.5464 12.2052 12.5464 13.295 11.7906 13.7269L4.68316 17.7883C3.93317 18.2169 3 17.6753 3 16.8115V8.68867Z" stroke="#0F172A" stroke-width="1.5" stroke-linecap="round" stroke-linejoin="round"/>
<path d="M12.75 8.68867C12.75 7.82487 13.6832 7.28334 14.4332 7.7119L21.5406 11.7733C22.2964 12.2052 22.2964 13.295 21.5406 13.7269L14.4332 17.7883C13.6832 18.2169 12.75 17.6753 12.75 16.8115V8.68867Z" stroke="#0F172A" stroke-width="1.5" stroke-linecap="round" stroke-linejoin="round"/>
</svg>

<svg xmlns="http://www.w3.org/2000/svg" fill="none" viewBox="0 0 24 24" stroke-width="1.5" stroke="currentColor" aria-hidden="true" data-slot="icon">
  <path stroke-linecap="round" stroke-linejoin="round" d="M3 8.689c0-.864.933-1.406 1.683-.977l7.108 4.061a1.125 1.125 0 0 1 0 1.954l-7.108 4.061A1.125 1.125 0 0 1 3 16.811V8.69ZM12.75 8.689c0-.864.933-1.406 1.683-.977l7.108 4.061a1.125 1.125 0 0 1 0 1.954l-7.108 4.061a1.125 1.125 0 0 1-1.683-.977V8.69Z"/>
</svg>
